X:19
T:Liberty Reel
T:(The Tipsy Parson)
M:4/4
R:reel
Q:1/2=120
L:1/8
K:D
e2|"D"f2A2f2A2|"D"fgfe d2ef|"Em"g2B2g2B2|"A7"gagf e2ag|
"D"f2A2f2A2|"D"fgfe d2cd|"A7"efed c2e2|"D"d4 d2:|
|:B2|"D"ABAG F2A2|"D"d2e2 f3f|"A7"g2e2cBA2|"D"dcde f2d2|
"D"ABAG F2A2|"D"d2e2 f3f|"A7"g2e2cBA2|"D"d4 d2:|
